assets/Sunglasses/Flat/sunglasses_flat.svg

<svg width="32" height="32" viewBox="0 0 32 32" fill="none" xmlns="http://www.w3.org/2000/svg">
<path d="M15.32 14.3401C15.32 18.0201 12.34 21.0001 8.66 21.0001C4.98 21.0001 2 18.0201 2 14.3401C2 10.6601 4.98 10.5601 8.66 10.5601C11.4355 10.5601 13.8129 10.6169 14.8138 12.2238C15.596 12.0079 16.425 12.0071 17.2076 12.2214C18.2094 10.6169 20.5858 10.5601 23.36 10.5601C27.04 10.5601 30.02 10.6601 30.02 14.3401C30.02 18.0201 27.04 21.0001 23.36 21.0001C19.68 21.0001 16.7 18.0201 16.7 14.3401C16.7 14.2397 16.7022 14.142 16.7066 14.0469C16.2511 13.922 15.7686 13.9229 15.3135 14.0496C15.3178 14.1438 15.32 14.2406 15.32 14.3401Z" fill="#635994"/>
<path d="M23.3499 20.08C26.3799 20.08 28.8399 17.62 28.8399 14.59C28.8399 11.56 26.3799 11.48 23.3499 11.48C20.3199 11.48 17.8599 11.56 17.8599 14.59C17.8599 17.62 20.3199 20.08 23.3499 20.08ZM8.65992 20.0799C11.6899 20.0799 14.1499 17.6199 14.1499 14.5899C14.1499 11.5599 11.6899 11.547 8.65992 11.547C5.62992 11.547 3.16992 11.5599 3.16992 14.5899C3.16992 17.6199 5.62992 20.0799 8.65992 20.0799Z" fill="#321B41"/>
<path d="M12.3999 15.6C13.0899 15.38 13.4399 14.5 13.1699 13.65C12.8999 12.79 12.1199 12.28 11.4199 12.49C10.7299 12.71 10.3799 13.58 10.6499 14.44C10.9199 15.3 11.6999 15.81 12.3999 15.6ZM27.1699 15.6001C27.8599 15.3801 28.2099 14.5001 27.9399 13.6501C27.6699 12.7901 26.8799 12.2801 26.1899 12.5001C25.4999 12.7201 25.1499 13.5901 25.4199 14.4501C25.6899 15.3101 26.4699 15.8201 27.1699 15.6001Z" fill="#D3D3D3"/>
</svg>

<svg xmlns="http://www.w3.org/2000/svg" width="32" height="32" fill="none"><path fill="#635994" d="M15.32 14.34c0 3.68-2.98 6.66-6.66 6.66S2 18.02 2 14.34s2.98-3.78 6.66-3.78c2.775 0 5.153.057 6.154 1.664a4.52 4.52 0 0 1 2.394-.003c1.001-1.604 3.378-1.66 6.152-1.66 3.68 0 6.66.1 6.66 3.78 0 3.68-2.98 6.66-6.66 6.66a6.658 6.658 0 0 1-6.653-6.954 2.618 2.618 0 0 0-1.394.003c.005.094.007.19.007.29Z"/><path fill="#321B41" d="M23.35 20.08c3.03 0 5.49-2.46 5.49-5.49 0-3.03-2.46-3.11-5.49-3.11-3.03 0-5.49.08-5.49 3.11s2.46 5.49 5.49 5.49Zm-14.69 0c3.03 0 5.49-2.46 5.49-5.49 0-3.03-2.46-3.043-5.49-3.043-3.03 0-5.49.013-5.49 3.043 0 3.03 2.46 5.49 5.49 5.49Z"/><path fill="#D3D3D3" d="M12.4 15.6c.69-.22 1.04-1.1.77-1.95-.27-.86-1.05-1.37-1.75-1.16-.69.22-1.04 1.09-.77 1.95.27.86 1.05 1.37 1.75 1.16Zm14.77 0c.69-.22 1.04-1.1.77-1.95-.27-.86-1.06-1.37-1.75-1.15-.69.22-1.04 1.09-.77 1.95.27.86 1.05 1.37 1.75 1.15Z"/></svg>
